X: 3246
T: The DERRY BOAT
%R: jig
B: James Kerr "Merry Melodies" v.3 p.27 #246
Z: 2016 John Chambers <jc:trillian.mit.edu>
N: The 2nd strain has initial repeat but no final repeat; fixed.
M: 6/8
L: 1/8
K: D
|:\
vA2vA uA2ud | B2B B2d | c2c cBc | d2e fga |\
A2A A2d | B2B B2d | cde ABc | d3 d3 :|
|:\
f2f fef | g2g g3 | e2e ede | f2f f3 |\
d2d dcd | e2e e2d | cde ABc | d3 d3 :|

%%sep 1 1 500
%%sep 1 1 500

